src/images/planet-4-svgrepo-com.svg

<svg version="1.1" xmlns="http://www.w3.org/2000/svg" xmlns:xlink="http://www.w3.org/1999/xlink" width="176px" height="176px" viewBox="0,0,256,256"><g fill="#ffffff" fill-rule="none" stroke="none" stroke-width="1" stroke-linecap="butt" stroke-linejoin="miter" stroke-miterlimit="10" stroke-dasharray="" stroke-dashoffset="0" font-family="none" font-weight="none" font-size="none" text-anchor="none" style="mix-blend-mode: normal"><g transform="translate(6.16159,-4.09394) scale(10.66667,10.66667)"><path d="M17.8457,15.5715c0.1012,-0.5081 0.1543,-1.0336 0.1543,-1.5715c0,-0.7633 -0.1069,-1.5016 -0.3065,-2.2008l-0.7378,-0.0454h-0.0011l-0.0064,-0.0003c-0.0076,-0.0004 -0.0206,-0.0009 -0.0389,-0.0015c-0.0366,-0.0011 -0.0942,-0.0022 -0.1709,-0.002c-0.1535,0.0006 -0.3832,0.0069 -0.6741,0.0306c-0.5825,0.0475 -1.4059,0.1646 -2.3529,0.4428c-0.1943,0.0571 -0.4191,0.1608 -0.7253,0.3158c-0.0608,0.0308 -0.1246,0.0635 -0.1912,0.0976c-0.2508,0.1286 -0.5412,0.2775 -0.8536,0.4174c-0.8132,0.3642 -1.8309,0.6958 -3.15684,0.6958c-1.89344,0 -3.45375,-0.5394 -4.53715,-1.0751c-0.5425,-0.2683 -0.96942,-0.5375 -1.26395,-0.7424c-0.14743,-0.1025 -0.26221,-0.1893 -0.34223,-0.2523c-0.04003,-0.0315 -0.07141,-0.0571 -0.09389,-0.0758l-0.02703,-0.0227l-0.00846,-0.0072l-0.00296,-0.0026l-0.00115,-0.001c0,0 -0.00095,-0.0008 0.48449,-0.5567l-0.48544,0.5559l-0.10203,-0.0891c-0.26254,0.792 -0.40466,1.6389 -0.40466,2.519c0,0.4306 0.03403,0.8533 0.09954,1.2655l0.36971,-0.0151l0.03075,0.7493c-0.03075,-0.7493 -0.03075,-0.7493 -0.03075,-0.7493l0.00133,-0.0001l0.0021,-0.0001l0.00649,-0.0002l0.02199,-0.0007c0.01859,-0.0006 0.04498,-0.0013 0.07867,-0.002c0.06735,-0.0013 0.16397,-0.0024 0.28581,-0.0018c0.24349,0.0012 0.5888,0.0093 1.00345,0.0365c0.82574,0.0543 1.94356,0.1857 3.08615,0.4985c0.35619,0.0975 0.70853,0.2562 1.03739,0.4113c0.07734,0.0365 0.15398,0.0731 0.23062,0.1096c0.26492,0.1265 0.53022,0.2531 0.82514,0.3761c0.73884,0.3083 1.61771,0.5725 2.77091,0.5725c2.1413,0 4.3312,-0.8645 5.3197,-1.4074l0.6573,-0.361z" fill-rule="nonzero"></path><path d="M17.2024,17.4864c-1.2735,0.5843 -3.3167,1.2636 -5.3831,1.2636c-1.4041,0 -2.48246,-0.3268 -3.34847,-0.6881c-0.3332,-0.139 -0.64245,-0.2867 -0.91159,-0.4152c-0.07179,-0.0343 -0.14077,-0.0672 -0.20655,-0.0983c-0.32828,-0.1548 -0.57592,-0.2616 -0.79347,-0.3212c-1.01398,-0.2775 -2.02477,-0.3982 -2.78851,-0.4484c-0.38008,-0.025 -0.69473,-0.0322 -0.9125,-0.0333c-0.10879,-0.0006 -0.19314,0.0005 -0.24909,0.0015c-0.02796,0.0006 -0.04881,0.0012 -0.06204,0.0016l-0.01407,0.0004l-0.00226,0.0001l-0.0452,0.0019c1.12168,3.063 4.06278,5.249 7.51445,5.249c3.1685,0 5.9068,-1.842 7.2024,-4.5136z" fill-rule="nonzero"></path><path d="M3.04319,10.0472l0.44883,0.3919l0.00109,0.0009l0.01267,0.0107c0.01269,0.0105 0.03381,0.0278 0.06308,0.0508c0.05858,0.0461 0.14963,0.1152 0.27105,0.1996c0.24318,0.1692 0.60613,0.3987 1.07224,0.6292c0.93384,0.4617 2.26575,0.9197 3.87231,0.9197c1.05625,0 1.86184,-0.2594 2.54374,-0.5648c0.2727,-0.1222 0.5174,-0.2475 0.7639,-0.3738c0.0717,-0.0367 0.1436,-0.0736 0.2163,-0.1104c0.306,-0.1549 0.6401,-0.3168 0.9802,-0.4167c1.0619,-0.3121 1.9885,-0.4444 2.6538,-0.4987c0.333,-0.0272 0.6016,-0.0348 0.7904,-0.0355c0.0945,-0.0004 0.1691,0.001 0.2219,0.0026c0.0264,0.0008 0.0474,0.0016 0.0627,0.0024l0.0186,0.0009l0.0061,0.0003l0.0022,0.0002h0.0013c0,0 0.0004,0.0001 -0.0455,0.7472l0.0455,-0.7472l0.0272,0.0017c-1.3428,-2.53287 -4.0063,-4.2582 -7.0728,-4.2582c-2.98055,0 -5.58041,1.62997 -6.95681,4.0472z" fill-rule="nonzero"></path><path d="M20.53,4.04472c-0.0366,-0.0941 -0.0808,-0.18662 -0.1329,-0.27677c-0.052,-0.09015 -0.11,-0.17472 -0.1732,-0.25349c0.3263,-0.09075 0.5486,-0.0964 0.6062,0.00349c0.0577,0.09989 -0.0583,0.2895 -0.3001,0.52677zM17.1063,6.02144c-0.3264,0.09075 -0.5486,0.0964 -0.6063,-0.00349c-0.0577,-0.09989 0.0583,-0.28951 0.3001,-0.52678c0.0366,0.09411 0.0809,0.18663 0.1329,0.27678c0.0521,0.09015 0.1101,0.17472 0.1733,0.25349zM17.1063,6.02144c0.455,-0.12652 1.1125,-0.41847 1.8088,-0.82048c0.6963,-0.40201 1.2778,-0.82543 1.6149,-1.15624c0.352,0.90441 0.0015,1.95504 -0.8649,2.45528c-0.8665,0.50024 -1.9516,0.27849 -2.5588,-0.47856zM16.8001,5.49117c-0.352,-0.9044 -0.0015,-1.95504 0.865,-2.45527c0.8664,-0.50024 1.9515,-0.2785 2.5588,0.47856c-0.455,0.12652 -1.1125,0.41847 -1.8088,0.82048c-0.6963,0.40201 -1.2779,0.82543 -1.615,1.15623z" fill-rule="evenodd"></path></g></g></svg>

<?xml version="1.0" encoding="utf-8"?><!-- Uploaded to: SVG Repo, www.svgrepo.com, Generator: SVG Repo Mixer Tools -->
<svg width="176px" height="176px" viewBox="0 0 24 24" fill="none" xmlns="http://www.w3.org/2000/svg">
<path d="M17.8457 15.5715C17.9469 15.0634 18 14.5379 18 14C18 13.2367 17.8931 12.4984 17.6935 11.7992L16.9557 11.7538L16.9546 11.7538L16.9482 11.7535C16.9406 11.7531 16.9276 11.7526 16.9093 11.752C16.8727 11.7509 16.8151 11.7498 16.7384 11.75C16.5849 11.7506 16.3552 11.7569 16.0643 11.7806C15.4818 11.8281 14.6584 11.9452 13.7114 12.2234C13.5171 12.2805 13.2923 12.3842 12.9861 12.5392C12.9253 12.57 12.8615 12.6027 12.7949 12.6368C12.5441 12.7654 12.2537 12.9143 11.9413 13.0542C11.1281 13.4184 10.1104 13.75 8.78446 13.75C6.89102 13.75 5.33071 13.2106 4.24731 12.6749C3.70481 12.4066 3.27789 12.1374 2.98336 11.9325C2.83593 11.83 2.72115 11.7432 2.64113 11.6802C2.6011 11.6487 2.56972 11.6231 2.54724 11.6044L2.52021 11.5817L2.51175 11.5745L2.50879 11.5719L2.50764 11.5709C2.50764 11.5709 2.50669 11.5701 2.99213 11.0142L2.50669 11.5701L2.40466 11.481C2.14212 12.273 2 13.1199 2 14C2 14.4306 2.03403 14.8533 2.09954 15.2655L2.46925 15.2504L2.5 15.9997C2.46925 15.2504 2.46925 15.2504 2.46925 15.2504L2.47058 15.2503L2.47268 15.2502L2.47917 15.25L2.50116 15.2493C2.51975 15.2487 2.54614 15.248 2.57983 15.2473C2.64718 15.246 2.7438 15.2449 2.86564 15.2455C3.10913 15.2467 3.45444 15.2548 3.86909 15.282C4.69483 15.3363 5.81265 15.4677 6.95524 15.7805C7.31143 15.878 7.66377 16.0367 7.99263 16.1918C8.06997 16.2283 8.14661 16.2649 8.22325 16.3014C8.48817 16.4279 8.75347 16.5545 9.04839 16.6775C9.78723 16.9858 10.6661 17.25 11.8193 17.25C13.9606 17.25 16.1505 16.3855 17.139 15.8426L17.7963 15.4816L17.8457 15.5715Z" fill="#1C274C"/>
<path d="M17.2024 17.4864C15.9289 18.0707 13.8857 18.75 11.8193 18.75C10.4152 18.75 9.33684 18.4232 8.47083 18.0619C8.13763 17.9229 7.82838 17.7752 7.55924 17.6467C7.48745 17.6124 7.41847 17.5795 7.35269 17.5484C7.02441 17.3936 6.77677 17.2868 6.55922 17.2272C5.54524 16.9497 4.53445 16.829 3.77071 16.7788C3.39063 16.7538 3.07598 16.7466 2.85821 16.7455C2.74942 16.7449 2.66507 16.746 2.60912 16.747C2.58116 16.7476 2.56031 16.7482 2.54708 16.7486L2.53301 16.749L2.53075 16.7491L2.48555 16.751C3.60723 19.814 6.54833 22 10 22C13.1685 22 15.9068 20.158 17.2024 17.4864Z" fill="#1C274C"/>
<path d="M3.04319 10.0472L3.49202 10.4391L3.49311 10.44L3.50578 10.4507C3.51847 10.4612 3.53959 10.4785 3.56886 10.5015C3.62744 10.5476 3.71849 10.6167 3.83991 10.7011C4.08309 10.8703 4.44604 11.0998 4.91215 11.3303C5.84599 11.792 7.1779 12.25 8.78446 12.25C9.84071 12.25 10.6463 11.9906 11.3282 11.6852C11.6009 11.563 11.8456 11.4377 12.0921 11.3114C12.1638 11.2747 12.2357 11.2378 12.3084 11.201C12.6144 11.0461 12.9485 10.8842 13.2886 10.7843C14.3505 10.4722 15.2771 10.3399 15.9424 10.2856C16.2754 10.2584 16.544 10.2508 16.7328 10.2501C16.8273 10.2497 16.9019 10.2511 16.9547 10.2527C16.9811 10.2535 17.0021 10.2543 17.0174 10.2551L17.036 10.256L17.0421 10.2563L17.0443 10.2565L17.0456 10.2565C17.0456 10.2565 17.046 10.2566 17.0001 11.0037L17.0456 10.2565L17.0728 10.2582C15.73 7.72533 13.0665 6 10 6C7.01945 6 4.41959 7.62997 3.04319 10.0472Z" fill="#1C274C"/>
<path fill-rule="evenodd" clip-rule="evenodd" d="M20.53 4.04472C20.4934 3.95062 20.4492 3.8581 20.3971 3.76795C20.3451 3.6778 20.2871 3.59323 20.2239 3.51446C20.5502 3.42371 20.7725 3.41806 20.8301 3.51795C20.8878 3.61784 20.7718 3.80745 20.53 4.04472ZM17.1063 6.02144C16.7799 6.11219 16.5577 6.11784 16.5 6.01795C16.4423 5.91806 16.5583 5.72844 16.8001 5.49117C16.8367 5.58528 16.881 5.6778 16.933 5.76795C16.9851 5.8581 17.0431 5.94267 17.1063 6.02144ZM17.1063 6.02144C17.5613 5.89492 18.2188 5.60297 18.9151 5.20096C19.6114 4.79895 20.1929 4.37553 20.53 4.04472C20.882 4.94913 20.5315 5.99976 19.6651 6.5C18.7986 7.00024 17.7135 6.77849 17.1063 6.02144ZM16.8001 5.49117C16.4481 4.58677 16.7986 3.53613 17.6651 3.0359C18.5315 2.53566 19.6166 2.7574 20.2239 3.51446C19.7689 3.64098 19.1114 3.93293 18.4151 4.33494C17.7188 4.73695 17.1372 5.16037 16.8001 5.49117Z" fill="#1C274C"/>
</svg>
